packages/foundations/assets/icons/functional/images/environment/moon_28.svg

<svg width="28" height="28" viewBox="0 0 28 28" fill="none" xmlns="http://www.w3.org/2000/svg">
<g clip-path="url(#clip0_185_826)">
<path fill-rule="evenodd" clip-rule="evenodd" d="M14.4541 3.87809C14.6544 3.4383 14.4602 2.91942 14.0205 2.71913C13.8861 2.65793 13.7384 2.63173 13.5911 2.64299C7.68696 3.0942 3.09418 8.02941 3.09418 13.9846C3.09418 20.2668 8.18694 25.3596 14.4692 25.3596C18.9725 25.3596 22.9954 22.7183 24.827 18.6909C25.0271 18.251 24.8327 17.7322 24.3928 17.5322C24.2585 17.4711 24.111 17.445 23.9639 17.4562C23.7171 17.4751 23.4688 17.4846 23.2192 17.4846C17.9034 17.4846 13.5942 13.1753 13.5942 7.85956C13.5942 6.46644 13.8898 5.11727 14.4541 3.87809ZM12.3184 4.60018C12.2837 4.71546 11.7738 6.33816 11.8473 8.12806C11.9837 14.0185 16.6216 18.8548 22.5498 19.2136C20.6683 22.0248 17.7357 23.6096 14.4692 23.6096C9.15344 23.6096 4.84418 19.3003 4.84418 13.9846C4.84418 9.45828 7.74498 5.90959 12.3184 4.60018Z" fill="#1A1C1F"/>
</g>
<defs>
<clipPath id="clip0_185_826">
<rect width="28" height="28" fill="white"/>
</clipPath>
</defs>
</svg>

<svg xmlns="http://www.w3.org/2000/svg" width="28" height="28" fill="none"><g clip-path="url(#a)"><path fill="#1A1C1F" fill-rule="evenodd" d="M14.454 3.878a.875.875 0 0 0-.863-1.235C7.687 3.094 3.094 8.029 3.094 13.985c0 6.282 5.093 11.375 11.375 11.375 4.504 0 8.526-2.642 10.358-6.67a.875.875 0 0 0-.863-1.234 9.625 9.625 0 0 1-10.37-9.597c0-1.393.296-2.742.86-3.98m-2.136.722c-.034.115-.544 1.738-.47 3.528.136 5.89 4.774 10.727 10.702 11.086-1.882 2.81-4.814 4.396-8.08 4.396a9.625 9.625 0 0 1-9.626-9.625c0-4.527 2.901-8.075 7.474-9.385" clip-rule="evenodd"/></g><defs><clipPath id="a"><path fill="#fff" d="M0 0h28v28H0z"/></clipPath></defs></svg>
